symbols/web/assured_workload/materialsymbolsoutlined/assured_workload_wght600_48px.svg

<svg xmlns="http://www.w3.org/2000/svg" height="48" width="48"><path d="M9.95 36.2V19.25h3.65V36.2Zm12.45 0V19.25H26V36.2ZM3.3 16.9v-3.85L24 1.3l20.75 11.75v3.85Zm8.45-4h24.5L24 5.85ZM3.3 42.5v-3.95h25.4q.1.8.225 1.85t.525 2.1Zm31.1-15.4v-7.85h3.65v6ZM40 48.3q-3.55-.85-5.9-4.075Q31.75 41 31.75 37.05V31.8L40 27.7l8.25 4.1v5.25q0 3.95-2.35 7.175Q43.55 47.45 40 48.3Zm-1.1-6.25 7.3-7.3-1.4-1.45-5.9 5.9-3.2-3.2-1.4 1.4ZM11.75 12.9h24.5Z"/></svg>

<svg xmlns="http://www.w3.org/2000/svg" height="48" width="48"><path d="M9.95 36.2V19.25H13.6V36.2ZM22.4 36.2V19.25H26V36.2ZM3.3 16.9V13.05L24 1.3L44.75 13.05V16.9ZM11.75 12.9H36.25L24 5.85ZM3.3 42.5V38.55H28.7Q28.8 39.35 28.925 40.4Q29.05 41.45 29.45 42.5ZM34.4 27.1V19.25H38.05V25.25ZM40 48.3Q36.45 47.45 34.1 44.225Q31.75 41 31.75 37.05V31.8L40 27.7L48.25 31.8V37.05Q48.25 41 45.9 44.225Q43.55 47.45 40 48.3ZM38.9 42.05 46.2 34.75 44.8 33.3 38.9 39.2 35.7 36 34.3 37.4ZM11.75 12.9H24H36.25Z"/></svg>
